X:1
T:Title
%%score { ( 1 4 ) | ( 2 3 ) }
L:1/8
Q:1/4=110
M:4/4
K:D
V:1 treble nm="Grand Piano"
V:4 treble 
V:2 bass 
V:3 bass 
V:1
 [FA]2 [FA]2 [FA]3 [GB] | [FA]2 F2 E2 D2 | F2 [FA]2 B2 d2 | A6 z2 | [CG]2 [DG]2 [EG]3 [CG] | %5
w: I.~H.~Meredith * * *|||||
 F2 G2 A2 [Fd]2 | [Ec]2 [Ac]2 [^Gc]3 [GB] | [CEA]6 z2 | [EG]2 [FA]2 [GB]3 [Gc] | %9
w: ||||
 [Fd]2 .[B,GB]2 [DFA]2 F2 | G2 B2 A3 F | [EG]2 [DF]2 [CE]4 | [Dd]2 [Dd]2 [Dd]3 [Fd] | e2 B2 c2 d2 | %14
w: |||||
 A2 A2 A3 [FA] | [GB]2 [Gc]2 [Fd]4 | [FA]2 [FA]2 [FA]2 [Fd]2 | [Gd]2 [Gc]2 E2 D2 | c2 B2 A2 G2 | %19
w: |||||
 F6 z2 | F3 F G3 G | A2 [Ad]2 d2 B2 | z2 d2 z4 | [Fd]6 z2 |] %24
w: |||||
V:2
 [D,D]2 [D,D]2 [D,D]3 [D,D] | [D,D]2 [D,A,D]2 [D,G,C]2 [D,F,]2 | %2
 [D,A,D]2 [D,D]2[K:treble] [G,DG]2 [B,DG]2 | [DF]6 z2 | [A,,A,]2 [B,,A,]2 [C,A,]3 [A,,A,] | %5
 [D,A,D]2 [E,A,C]2 [F,A,D]2 [D,A,]2 | [E,A,]2 [E,C]2 [E,E]3 [E,D] | [A,,A,]6 z2 | %8
 [A,,A,]2 [A,,A,]2 [A,,A,]3 [A,,A,] | [D,A,]2 z C D,2 [D,A,D]2 | %10
 [E,A,C]2 [G,A,C]2 [F,A,D]3 [D,A,D] | [C,A,]2 [D,A,]2 [A,,A,]4 | [D,F,]2 [E,G,]2 [F,A,]3 [D,A,] | %13
 [G,B,G]2 [G,DG]2 [^G,C=F]2 [G,B,F]2 | [A,F]2[K:bass] [G,CE]2 [F,D]3 [D,C] | %15
 [G,D]2 [E,A,]2 [D,A,]4 | [D,A,]2 [A,,A,]2 [D,A,]2 [A,,A,]2 | [E,A,]2 [A,,A,]2 C2 B,2 | %18
 [A,E]2 [G,CE]2 [F,DF]2 [E,A,C]2 | [D,A,D]6 z2 | [D,A,D]3 [D,A,D] [E,A,C]3 [E,A,C] | %21
 [F,A,D]2 [F,=C]2[K:treble] [G,B,G]2 [G,DG]2 | [A,DF]2[K:bass] [F,A,D][G,B,] [A,F]2 [A,,A,]2 | %23
 [D,A,]6 z2 |] %24
V:3
 x8 | x8 | x4[K:treble] x4 | x8 | x8 | x8 | x8 | x8 | x8 | z2 D,2 z4 | x8 | x8 | x8 | x8 | %14
 x2[K:bass] x6 | x8 | x8 | x8 | x8 | x8 | x8 | x4[K:treble] x4 | x2[K:bass] x6 | x8 |] %24
V:4
 x8 | x8 | x8 | x8 | x8 | x8 | x8 | x8 | x8 | x8 | x8 | x8 | x8 | x8 | x8 | x8 | x8 | x8 | x8 | %19
 x8 | x8 | x8 | A2 z E d2 [Gc]2 | x8 |] %24

